X: 1021
T: HENNESSEY'S QUICK-STEP
C: Zetzsche
B: Oliver Ditson "The Boston Collection of Instrumental Music" 1910 p.102 #1
F: http://conquest.imslp.info/files/imglnks/usimg/8/8f/IMSLP175643-PMLP309456-bostoncollection00bost_bw.pdf
%: 2012 John Chambers <jc:trillian.mit.edu>
N: The initial pickup should probably be a triplet.
N: The last part duplicates the key change with redundant accidentals.
M: 2/4
L: 1/16
K: G
DEF |\
G4 G3G | A4 AGFE | D2^CD EFGA | B4 z4 |\
B4 B3B | c4 B2A2 | G2FG B2A2 | G2z2 D2e2 |
d4 D2c2 | B4 D2c2 | B2A2 C2B2 | A2G2 D2e2 |\
d4 D2c2 | B4 D2c2 | B2A2 B2A2 | G4 z2 :|
|: A2 |\
d4- d^cBA | BA^GA F4 | d4- d^cBA | BA^GA F4 |\
e4- ed ^cB | ^c4- cBA^G | B4- BAA=G | GFFE EAA^c |
d4- d^cBA | BA^GA F4 | d4- dcBA | cB^AB G4 |\
EBA2- AGFE | DBA2- AFED | ^CDEF GAB^c | d4 z2 :|
|: DG |\
B3B B2B2 | B2B2 B2B2 | d2Az B2Gz | d2Az B2Gz |\
E3E E2E2 | E2c2 B2A2 | G4- GFAG | F3D EFGA |
B3B B2B2 | B2B2 B2B2 | d2Az B2Gz | e2Bz c2Az |\
d4- dcBA | c4- cBAG | B4- BAGF | G4 z2 :|
|:[K:C] cd |\
(e4 c2)E=F | (A4 G2) de | (=f4 d2) dc | cBBA G2cd |\
(e4 c2) EG |(_B4 A2) ag | g=ffe eddg | c4 z2 :|

%%sep 1 1 500
%%sep 1 1 500
